src/qt/res/src/tx_inout.svg

<svg enable-background="new 0 0 24 24" viewBox="0 0 24 24" xmlns="http://www.w3.org/2000/svg"><path d="m14.7 19.5c-2.5 0-4.5-2-4.5-4.5 0-.6-.4-1-1-1s-1 .4-1 1c0 3.6 2.9 6.5 6.5 6.5s6.5-2.9 6.5-6.5-2.9-6.5-6.5-6.5c-.6 0-1 .4-1 1s.4 1 1 1c2.5 0 4.5 2 4.5 4.5s-2 4.5-4.5 4.5zm-8.8-7c-.6 0-1-.4-1-1s.4-1 1-1h3.2l-1.7-1.7-4.1-4.1c-.4-.4-.4-1 0-1.4.2-.2.4-.3.7-.3s.5.1.7.3l4.1 4.1 1.7 1.7v-3.3c0-.6.4-1 1-1s1 .4 1 1v6.7zm1.6-11.7c.6 0 1 .4 1 1s-.4 1-1 1h-3.2l1.7 1.7 4.1 4.1c.4.4.4 1 0 1.4-.2.2-.4.3-.7.3s-.5-.1-.7-.3l-4.1-4.1-1.7-1.7v3.2c0 .6-.4 1-1 1s-1-.4-1-1v-6.6z"/></svg>

<?xml version="1.0" encoding="utf-8"?>
<!-- Generator: Adobe Illustrator 17.1.0, SVG Export Plug-In . SVG Version: 6.00 Build 0)  -->
<!DOCTYPE svg PUBLIC "-//W3C//DTD SVG 1.1//EN" "http://www.w3.org/Graphics/SVG/1.1/DTD/svg11.dtd">
<svg version="1.1" id="Ebene_1" xmlns="http://www.w3.org/2000/svg" xmlns:xlink="http://www.w3.org/1999/xlink" x="0px" y="0px"
	 viewBox="0 0 24 24" enable-background="new 0 0 24 24" xml:space="preserve">
<path d="M14.7,19.5c-2.5,0-4.5-2-4.5-4.5c0-0.6-0.4-1-1-1c-0.6,0-1,0.4-1,1c0,3.6,2.9,6.5,6.5,6.5s6.5-2.9,6.5-6.5s-2.9-6.5-6.5-6.5
	c-0.6,0-1,0.4-1,1s0.4,1,1,1c2.5,0,4.5,2,4.5,4.5S17.2,19.5,14.7,19.5z M5.9,12.5c-0.6,0-1-0.4-1-1s0.4-1,1-1h3.2L7.4,8.8L3.3,4.7
	c-0.4-0.4-0.4-1,0-1.4C3.5,3.1,3.7,3,4,3s0.5,0.1,0.7,0.3l4.1,4.1l1.7,1.7V5.8c0-0.6,0.4-1,1-1s1,0.4,1,1v6.7L5.9,12.5 M7.5,0.8
	c0.6,0,1,0.4,1,1s-0.4,1-1,1H4.3L6,4.5l4.1,4.1c0.4,0.4,0.4,1,0,1.4c-0.2,0.2-0.4,0.3-0.7,0.3S8.9,10.2,8.7,10L4.6,5.9L2.9,4.2v3.2
	c0,0.6-0.4,1-1,1s-1-0.4-1-1V0.8L7.5,0.8"/>
</svg>
